X: 10
T:True Courage. BF14.09
M:3/4
L:1/4
Q:60
S:MS14,Browne "D",early 19thC,Troutbeck,W'morland
R:Air
O:England
A:Lake District
N:The music may run onto next page,which is missing.
Z:vmp.Chris Partington
K:G
D/|GBd|cee|dc/B/ A/G/|FAA|BGG|GEE|A/G/FF|!
GBd|cee|dc/B/ A/G/|FAA|dBB|ged|cAB|cd:|!
|:d/4e/4|gfe|ed/c/ A/G/|FGA|AFD|gfe|ed/c/ B/G/|!
F/G/ AA|D/G/A/B/D|GBA|Bc|AG Bc de|efgd|!
cBA|GFE|DEe|eA/G/|Fdd|defg|Bed|cBA/G/|"NB"FG|]
